public/themes/EC/images/check-mark.svg

<?xml version="1.0" encoding="UTF-8"?>
<svg width="69px" height="61px" viewBox="0 0 69 61" version="1.1" xmlns="http://www.w3.org/2000/svg" xmlns:xlink="http://www.w3.org/1999/xlink">
    <!-- Generator: Sketch 61 (89581) - https://sketch.com -->
    <title>check-mark</title>
    <desc>Created with Sketch.</desc>
    <g id="Page-1" stroke="none" stroke-width="1" fill="none" fill-rule="evenodd">
        <g id="check-mark">
            <circle id="Oval" fill="#EAD7C0" cx="30.5" cy="30.5" r="30.5"></circle>
            <path d="M35.0649001,50.9475816 C32.2539332,53.6841395 27.6928951,53.6841395 24.8832848,50.9475816 L9.1082252,35.5901033 C6.29725827,32.8548662 6.29725827,28.4145633 9.1082252,25.6793261 C11.9178355,22.9427683 16.4788735,22.9427683 19.2898405,25.6793261 L28.688672,34.8280406 C29.398197,35.517463 30.549988,35.517463 31.2608696,34.8280406 L56.7101595,10.0524184 C59.5197698,7.31586053 64.0808079,7.31586053 66.8917748,10.0524184 C68.2416359,11.3665473 69,13.1495363 69,15.007807 C69,16.8660777 68.2416359,18.6490667 66.8917748,19.9631956 L35.0649001,50.9475816 Z" id="Path" fill="#CC9B5F" fill-rule="nonzero"></path>
        </g>
    </g>
</svg>

<svg width="69" height="61" viewBox="0 0 69 61" xmlns="http://www.w3.org/2000/svg"><title>check-mark</title><g fill="none" fill-rule="evenodd"><circle fill="#EAD7C0" cx="30.5" cy="30.5" r="30.5"/><path d="M35.065 50.948c-2.811 2.736-7.372 2.736-10.182 0L9.108 35.59a6.878 6.878 0 0 1 0-9.91c2.81-2.737 7.37-2.737 10.182 0l9.399 9.148c.71.69 1.861.69 2.572 0l25.45-24.776c2.809-2.736 7.37-2.736 10.18 0A6.916 6.916 0 0 1 69 15.008a6.916 6.916 0 0 1-2.108 4.955L35.065 50.948z" fill="#CC9B5F" fill-rule="nonzero"/></g></svg>
